X:141
T: SUMMER SUMMER MAJE
N: E1222
O: Europa, Mitteleuropa, Deutschland, Hessen, Bergstrasse; Odenwald
R: Ansinge -, Brauchtums - Lied, Kirchen - Fest, Sommer - Tags - Lied
M: 2/4
L: 1/16
K: F
 | c2c2c2d2 | c4A2
B2 | c2c2c2d2 | c4A2
B2 | ccc2c2d2 | c6
B2 | A2A2G2G2 | F4z4
c4d4 | c6
B2 | A2A2G2G2 | F4z4
c2c2A4 | c2c2A4
c2c2d2d2 | c2c2A4
c4A2z2 | c4A2
B2 | c2c2c2d2 | c2c2A2
B2 | c2c2c2d2 | c4A2
B2 | c2c2c2d2 | c4A2z2
c4d4 | c6
B2 | A2A2G2G2 | F4z2
AB | c2c2c2d2 | c2c2A2
B2 | c2c2c2d2 | c2c2A4
c2c2c2d2 | c6
B2 | A2A2G2G2 | F4z4

